X:97
T:Downshire Quick March. JMP.097
M:2/4
L:1/8
Q:1/2=60
S:John Miller MS. Perth, 1799.(for the fife)
R:.March
O:Scotland
A:Perth
N:1 â€“ The first three Dâ€™s are all shown as crochets
N:2 â€“ Last three notes unclear
H:1799
Z:vmp.C. Graebe
K:D major
â€œKey shown as G majorâ€A/G/ | FDDD | DFAd |\
cAAA | Aceg | fd e/d/c/d/ |!
Bggf | e/f/g/f/ ed | c/d/e/d/ c/B/A/G/ |Fâ€1â€³D/D/ DD | DFAd |!
c/d/e/c/ AA | Adeg |fd e/d/c/d/ | Bggf | ed c/d/e/[c/f/] |\
ddd :|!
|:d/e/ | ffff | f>a bagf | eeee | e>a a/f/e/d/ |\
f>e d/c/B/A/ | !
GBB e/c/ | d/e/c/e/ B/e/A/e/ |\
G/e/A/e/ B/e/c/e/ | d/e/c/e/ B/e/A/e/ |G/e/A/e/ B/e/c/e/ |!
d/e/f/e/ f/g/a/f/ |b/g/a/f/ f/e/d/c/ | d/c/d/e/ f/e/f/g/ |!
a/^g/a/^g/ a/f/e/d/ | c/d/e/f/ e/d/c/B/ | A/G/A/B/ â€œ2â€A/G/F/ |]

